X: 164
T: The Slip
M:4/4
L:1/8
Q:160
S:Playford
O:Manuscript
A:English
K:C
c2 G2 c2 d2|e3 f g2 e2|a2 g2 fg e2|d4 c4|c2 G2 c2 d2|e3 f g2 e2|a2 g2 fg e2|d4 c4:|
|: d2 Bc d2 G2|d2 Bc d2 G2|d2 e2 d2 a2|e3 d d4|e3 f g2 e2|f2 g2 a2 A2| g2 c2 B2 c2|d3 c c4:|

